X: 43090
T: Wind-Up, The
R: reel
M: 4/4
K: Dminor
|:a3 a a2 ag|fedf e^c A2|a3 a a2 ag|fed^c defg|
a3 a a2 ag|fedf e^c A2|edfg afge|fe^ce d2 z2:|
|:F2 (3FFF F2 AB|cfag fdcA|FGFE FGAB|c=Bdc G2 (3GGG|
F2 (3FFF F2 AB|cfag fdcA|bAaA gAfA|gcag f2 z2:|

